resources/haticons/SVG/hp.svg

<!-- Generated by IcoMoon.io -->
<svg version="1.1" xmlns="http://www.w3.org/2000/svg" width="24" height="24" viewBox="0 0 24 24">
<title>hp</title>
<path fill="#0096d6" d="M12 24h-0.4l2.5-6.7h3.4c0.6 0 1.2-0.5 1.4-1l2.7-7.3c0.4-1.2-0.3-2.2-1.5-2.2h-4.7l-3.9 10.8-2.2 6.1c-5.4-1.3-9.3-6-9.3-11.7 0-5.5 3.7-10.1 8.8-11.6l-2.3 6.4-3.9 10.5h2.5l3.2-8.9h1.9l-3.2 8.9h2.5l3-8.3c0.4-1.2-0.2-2.2-1.5-2.2h-2l2.5-6.8h0.5c6.6 0 12 5.4 12 12s-5.4 12-12 12zM19.3 8.3h-1.9l-2.7 7.3h1.9z"></path>
</svg>

<svg xmlns="http://www.w3.org/2000/svg" width="24" height="24"><path fill="#0096d6" d="M12 24h-.4l2.5-6.7h3.4c.6 0 1.2-.5 1.4-1L21.6 9c.4-1.2-.3-2.2-1.5-2.2h-4.7l-3.9 10.8-2.2 6.1C3.9 22.4 0 17.7 0 12 0 6.5 3.7 1.9 8.8.4L6.5 6.8 2.6 17.3h2.5l3.2-8.9h1.9L7 17.3h2.5l3-8.3c.4-1.2-.2-2.2-1.5-2.2H9L11.5 0h.5c6.6 0 12 5.4 12 12s-5.4 12-12 12zm7.3-15.7h-1.9l-2.7 7.3h1.9z"/></svg>
